src/cmd/sc_alphalowliststyle.svg

<?xml version="1.0" encoding="UTF-8" standalone="no"?>
<svg
   xmlns:dc="http://purl.org/dc/elements/1.1/"
   xmlns:cc="http://creativecommons.org/ns#"
   xmlns:rdf="http://www.w3.org/1999/02/22-rdf-syntax-ns#"
   xmlns:svg="http://www.w3.org/2000/svg"
   xmlns="http://www.w3.org/2000/svg"
   xmlns:sodipodi="http://sodipodi.sourceforge.net/DTD/sodipodi-0.dtd"
   xmlns:inkscape="http://www.inkscape.org/namespaces/inkscape"
   viewBox="0 0 16 16"
   version="1.1"
   id="svg10"
   sodipodi:docname="sc_alphalowliststyle.svg"
   inkscape:version="0.92.4 (5da689c313, 2019-01-14)">
  <metadata
     id="metadata16">
    <rdf:RDF>
      <cc:Work
         rdf:about="">
        <dc:format>image/svg+xml</dc:format>
        <dc:type
           rdf:resource="http://purl.org/dc/dcmitype/StillImage" />
      </cc:Work>
    </rdf:RDF>
  </metadata>
  <defs
     id="defs14" />
  <sodipodi:namedview
     pagecolor="#ffffff"
     bordercolor="#666666"
     borderopacity="1"
     objecttolerance="10"
     gridtolerance="10"
     guidetolerance="10"
     inkscape:pageopacity="0"
     inkscape:pageshadow="2"
     inkscape:window-width="1920"
     inkscape:window-height="1011"
     id="namedview12"
     showgrid="true"
     inkscape:zoom="41.7193"
     inkscape:cx="6.8961218"
     inkscape:cy="7.7564116"
     inkscape:window-x="0"
     inkscape:window-y="32"
     inkscape:window-maximized="1"
     inkscape:current-layer="svg10">
    <inkscape:grid
       type="xygrid"
       id="grid823" />
  </sodipodi:namedview>
  <g
     fill="#762572"
     id="g8">
    <path
       d="m5 2a2 2 0 0 0 -2 2 2 2 0 0 0 2 2 2 2 0 0 0 1-.2695312v.2695312h1v-2-2h-1v.2714844a2 2 0 0 0 -1-.2714844zm0 1a1 1 0 0 1 1 1 1 1 0 0 1 -1 1 1 1 0 0 1 -1-1 1 1 0 0 1 1-1z"
       id="path4" />
    <path
       d="m5 8c1.1045695 0 2 .8954305 2 2 0 1.104569-.8954305 2-2 2-.3512171-.000481-.6961149-.09344-1-.269531v.269531h-1v-2-3h1v1.2714844c.3036956-.1767726.6486051-.2704101 1-.2714844zm0 1c-.5522847 0-1 .4477153-1 1 0 .552285.4477153 1 1 1s1-.447715 1-1c0-.5522847-.4477153-1-1-1z"
       id="path6" />
  </g>
  <path
     inkscape:connector-curvature="0"
     id="path822"
     style="fill:#232629"
     d="m 14,13 v 1 H 8 v -1 z m 0,-3 v 1 H 8 V 10 Z M 14,8 V 9 H 8 V 8 Z M 14,4 V 5 H 8 V 4 Z M 14,2 V 3 H 8 V 2 Z" />
</svg>

<?xml version="1.0" encoding="UTF-8" standalone="no"?>
<svg
   xmlns:dc="http://purl.org/dc/elements/1.1/"
   xmlns:cc="http://creativecommons.org/ns#"
   xmlns:rdf="http://www.w3.org/1999/02/22-rdf-syntax-ns#"
   xmlns:svg="http://www.w3.org/2000/svg"
   xmlns="http://www.w3.org/2000/svg"
   xmlns:sodipodi="http://sodipodi.sourceforge.net/DTD/sodipodi-0.dtd"
   xmlns:inkscape="http://www.inkscape.org/namespaces/inkscape"
   viewBox="0 0 16 16"
   version="1.1"
   id="svg10"
   sodipodi:docname="sc_alphalowliststyle.svg"
   inkscape:version="0.92.5 (2060ec1f9f, 2020-04-08)"
   inkscape:export-filename="/home/jupiter007/Libreoffice yaru theme fullcolor/build/cmd/sc_alphalowliststyle.png"
   inkscape:export-xdpi="96"
   inkscape:export-ydpi="96">
  <metadata
     id="metadata16">
    <rdf:RDF>
      <cc:Work
         rdf:about="">
        <dc:format>image/svg+xml</dc:format>
        <dc:type
           rdf:resource="http://purl.org/dc/dcmitype/StillImage" />
      </cc:Work>
    </rdf:RDF>
  </metadata>
  <defs
     id="defs14" />
  <sodipodi:namedview
     pagecolor="#ffffff"
     bordercolor="#666666"
     borderopacity="1"
     objecttolerance="10"
     gridtolerance="10"
     guidetolerance="10"
     inkscape:pageopacity="0"
     inkscape:pageshadow="2"
     inkscape:window-width="1920"
     inkscape:window-height="1011"
     id="namedview12"
     showgrid="true"
     inkscape:zoom="41.7193"
     inkscape:cx="1.8835714"
     inkscape:cy="6.5258457"
     inkscape:window-x="0"
     inkscape:window-y="32"
     inkscape:window-maximized="1"
     inkscape:current-layer="svg10">
    <inkscape:grid
       type="xygrid"
       id="grid823" />
  </sodipodi:namedview>
  <g
     style="fill:#000000;stroke:#000000;opacity:0.6;stroke-width:2;stroke-miterlimit:4;stroke-dasharray:none;stroke-linejoin:round"
     transform="translate(-1)"
     id="g823">
    <path
       style="fill:#000000;stroke:#000000;stroke-width:2;stroke-miterlimit:4;stroke-dasharray:none;stroke-linejoin:round"
       inkscape:connector-curvature="0"
       id="path819"
       d="M 5,2 A 2,2 0 0 0 3,4 2,2 0 0 0 5,6 2,2 0 0 0 6,5.7304688 V 6 H 7 V 4 2 H 6 V 2.2714844 A 2,2 0 0 0 5,2 Z M 5,3 A 1,1 0 0 1 6,4 1,1 0 0 1 5,5 1,1 0 0 1 4,4 1,1 0 0 1 5,3 Z" />
    <path
       style="fill:#000000;stroke:#000000;stroke-width:2;stroke-miterlimit:4;stroke-dasharray:none;stroke-linejoin:round"
       sodipodi:nodetypes="cscccccccccsssss"
       inkscape:connector-curvature="0"
       id="path821"
       d="M 5,9 C 6.1045695,9 7,9.8954305 7,11 7,12.104569 6.1045695,13 5,13 4.6487829,12.999519 4.3038851,12.90656 4,12.730469 V 13 H 3 V 11 8 H 4 V 9.2714844 C 4.3036956,9.0947118 4.6486051,9.0010743 5,9 Z m 0,1 c -0.5522847,0 -1,0.447715 -1,1 0,0.552285 0.4477153,1 1,1 0.5522847,0 1,-0.447715 1,-1 0,-0.552285 -0.4477153,-1 -1,-1 z" />
  </g>
  <g
     id="g8"
     transform="translate(-1)"
     style="fill:#ffffff">
    <path
       d="M 5,2 A 2,2 0 0 0 3,4 2,2 0 0 0 5,6 2,2 0 0 0 6,5.7304688 V 6 H 7 V 4 2 H 6 V 2.2714844 A 2,2 0 0 0 5,2 Z M 5,3 A 1,1 0 0 1 6,4 1,1 0 0 1 5,5 1,1 0 0 1 4,4 1,1 0 0 1 5,3 Z"
       id="path4"
       inkscape:connector-curvature="0"
       style="fill:#ffffff" />
    <path
       d="M 5,9 C 6.1045695,9 7,9.8954305 7,11 7,12.104569 6.1045695,13 5,13 4.6487829,12.999519 4.3038851,12.90656 4,12.730469 V 13 H 3 V 11 8 H 4 V 9.2714844 C 4.3036956,9.0947118 4.6486051,9.0010743 5,9 Z m 0,1 c -0.5522847,0 -1,0.447715 -1,1 0,0.552285 0.4477153,1 1,1 0.5522847,0 1,-0.447715 1,-1 0,-0.552285 -0.4477153,-1 -1,-1 z"
       id="path6"
       inkscape:connector-curvature="0"
       sodipodi:nodetypes="cscccccccccsssss"
       style="fill:#ffffff" />
  </g>
  <rect
     inkscape:export-ydpi="96"
     inkscape:export-xdpi="96"
     inkscape:export-filename="/home/jupiter007/Libreoffice yaru theme fullcolor/build/cmd/rect7303.png"
     y="3"
     x="8"
     height="2"
     width="7"
     id="rect837"
     style="opacity:1;vector-effect:none;fill:#924d8b;fill-opacity:1;stroke:none;stroke-width:2.15384626;stroke-linecap:round;stroke-linejoin:round;stroke-miterlimit:4;stroke-dasharray:none;stroke-dashoffset:0;stroke-opacity:1" />
  <rect
     style="opacity:1;vector-effect:none;fill:#924d8b;fill-opacity:1;stroke:none;stroke-width:2.15384626;stroke-linecap:round;stroke-linejoin:round;stroke-miterlimit:4;stroke-dasharray:none;stroke-dashoffset:0;stroke-opacity:1"
     id="rect839"
     width="7"
     height="2"
     x="8"
     y="10"
     inkscape:export-filename="/home/jupiter007/Libreoffice yaru theme fullcolor/build/cmd/rect7303.png"
     inkscape:export-xdpi="96"
     inkscape:export-ydpi="96" />
</svg>
